packages/icon-set-ionic/svg/sharp/american-football-sharp.svg

<svg viewBox="0 0 512 512" xmlns="http://www.w3.org/2000/svg"><path d="m120.9 120.51c-44.75 44.56-67.29 101.05-78.64 145.9l202.31 201.44c45.05-11.3 101.78-33.74 146.53-78.3s67.29-101.05 78.64-145.91l-202.31-201.43c-45.05 11.3-101.78 33.79-146.53 78.3zm214 33.63 22.52 22.42-33.78 33.63 22.52 22.42-22.61 22.39-22.55-22.39-22.48 22.39 22.48 22.45-22.51 22.42-22.49-22.42-22.52 22.42 22.52 22.42-22.52 22.42-22.48-22.42-33.78 33.63-22.55-22.42 33.78-33.63-22.52-22.42 22.52-22.45 22.55 22.45 22.48-22.45-22.48-22.39 22.51-22.42 22.49 22.42 22.52-22.42-22.52-22.42 22.52-22.42 22.48 22.42zm143.58 44.27c7.37-54.76-14.48-150.36-14.48-150.36s-96.14-21.88-151.14-14.54c-2.54.33-5.21.72-8 1.14l172.47 171.71c.43-2.76.81-5.42 1.15-7.95zm-444.96 113.24c-7.37 54.76 14.53 152.35 14.53 152.35s60 16 99.86 16a391.92 391.92 0 0 0 51.23-3.45c2.54-.33 5.21-.72 8-1.15l-172.47-171.7c-.43 2.76-.81 5.42-1.15 7.95z"/></svg>

<svg xmlns="http://www.w3.org/2000/svg" viewBox="0 0 512 512"><path d="M120.9 120.51c-44.75 44.56-67.29 101.05-78.64 145.9l202.31 201.44c45.05-11.3 101.78-33.74 146.53-78.3s67.29-101.05 78.64-145.91L267.43 42.21C222.38 53.51 165.65 76 120.9 120.51zm214 33.63 22.52 22.42-33.78 33.63 22.52 22.42L323.55 255 301 232.61 278.52 255 301 277.45l-22.51 22.42L256 277.45l-22.52 22.42L256 322.29l-22.52 22.42L211 322.29l-33.78 33.63-22.55-22.42 33.78-33.63-22.52-22.42L188.45 255 211 277.45 233.48 255 211 232.61l22.51-22.42L256 232.61l22.52-22.42L256 187.77l22.52-22.42L301 187.77zm143.58 44.27C485.85 143.65 464 48.05 464 48.05s-96.14-21.88-151.14-14.54c-2.54.33-5.21.72-8 1.14l172.47 171.71c.43-2.76.81-5.42 1.15-7.95zM33.52 311.65C26.15 366.41 48.05 464 48.05 464s60 16 99.86 16a391.92 391.92 0 0 0 51.23-3.45c2.54-.33 5.21-.72 8-1.15L34.67 303.7c-.43 2.76-.81 5.42-1.15 7.95z"/></svg>
